src/Assets/icons/magento.svg

<svg fill="currentColor" class="svg-icon" viewBox="0 0 32 32" version="1.1" xmlns="http://www.w3.org/2000/svg">
<path d="M28.985 8.502v14.996l-3.71 2.142v-14.997l-9.275-5.352-9.28 5.352v14.997l-3.705-2.142v-14.996l12.985-7.498zM16 30.996l-5.567-3.214v-14.996l3.711-2.143v14.997l1.856 1.127 1.856-1.127v-14.997l3.713 2.143v14.996z"></path>
</svg>

<svg fill="currentColor" class="svg-icon" viewBox="0 0 32 32" xmlns="http://www.w3.org/2000/svg"><path d="M28.985 8.502v14.996l-3.71 2.142V10.643L16 5.291l-9.28 5.352V25.64l-3.705-2.142V8.502L16 1.004zM16 30.996l-5.567-3.214V12.786l3.711-2.143V25.64L16 26.767l1.856-1.127V10.643l3.713 2.143v14.996z"/></svg>
